X: 214
U:~=!turn!
M:C
L:1/8
K:D mixolydian
c/ | B>Gd>G c<=F [F2A2] | B>Gd>G B>cd<g | B>Gd>G c>=FA>c | B>Gd>G (A/B/c) A3/2 :|
{/F}G>G,D>G, C>B,A,>C | B,>G, G/F/E/D/ {/C}B,2 A,>C | B,>G,D>G, C>B,A,>C | B,>G,D>G, E>G,D>F | {/F}G>G,D>G, C>B,A,>C |


